svg/u26f5.svg

<svg viewBox="0 0 128 128" xmlns="http://www.w3.org/2000/svg">
  <g>
    <line fill="none" stroke="#82AEC0" stroke-width="3" stroke-linecap="round" stroke-miterlimit="10" x1="75.27" x2="67.8" y1="5.53" y2="112.21"/>
    <path d="M11.82,103.13c0,0,6.54-26.89,21.79-53.35C47.34,25.96,74.13,4,74.13,4s-8.09,34.67-9.6,55.27 c-1.92,26.18,2.53,38.51,2.53,38.51s-11.05-4.98-23.1-3.78C26.38,95.75,11.82,103.13,11.82,103.13z" fill="#FF7043"/>
    <polygon points="76.27,92.02 108.87,90.28 76.84,5.26 " fill="#F4511E"/>
    <g>
      <path d="M64.05,71.92c-13.26-2.53-29.67-1.98-42.29,2.04c-1.94,4.58-4.44,11.48-4.44,11.48 c13.84-6.34,32.08-7.08,47.1-3.23C64.2,79.22,64.05,75.8,64.05,71.92z" fill="#FFAB91"/>
      <path d="M34.38,48.48c-0.26,0.43-0.52,0.87-0.78,1.3c-2.03,3.52-3.86,7.06-5.52,10.55 c10.61-3.75,25.09-3.38,36.48-1.6c0.25-3.19,0.65-6.69,1.15-10.35C56.19,47,43.69,46.5,34.38,48.48z" fill="#FFAB91"/>
      <path d="M52.49,24.8c-3.05,3.34-6.16,6.95-9.13,10.74c7.04-1.25,17-0.57,24.3,0.41 c0.57-3.3,1.17-6.56,1.77-9.66C64.4,25.54,57.44,24.6,52.49,24.8z" fill="#FFAB91"/>
    </g>
    <g>
      <polygon points="76.34,81.48 104.75,79.34 101.62,71.05 76.4,72.96 " fill="#BF360C"/>
      <polygon points="93.49,49.47 76.54,50.74 76.49,59.27 96.65,57.86 " fill="#BF360C"/>
      <polygon points="85.35,27.87 76.68,28.52 76.63,37.11 88.5,36.21 " fill="#BF360C"/>
    </g>
    <path d="M84.25,99.04L52.59,96.4c0,0-5.44,0.22-10.17,0.22s-7.14,10.03-7.14,10.03l54.68,3.2l-1.9-7.58 C87.6,100.49,86.08,99.19,84.25,99.04z" fill="#E0E0E0"/>
    <path d="M46.21,107.29c0,0,3.13-10.89,6.38-10.89c2.67,0,24.49,1.96,32.1,2.65 c1.57,0.14,2.87,1.26,3.25,2.79l2,8.01L46.21,107.29z" fill="#82AEC0"/>
    <path d="M24.31,124c-9.67,0-13.35-17.9-13.78-20.59c-0.07-0.41,0.27-0.77,0.69-0.72 c35.65,4.31,97.99,7.12,107.13,7.52c0.51,0.02,0.8,0.58,0.54,1.01l-6.84,11.07c-0.66,1.06-1.82,1.71-3.07,1.71H43.59 C43.59,124,32.97,124,24.31,124z" fill="#B9E4EA"/>
    <g>
      <circle cx="62.01" cy="102.44" r="2.83" fill="#37474F"/>
      <circle cx="72.24" cy="103.18" r="2.66" fill="#37474F"/>
      <circle cx="82.46" cy="103.92" r="2.49" fill="#37474F"/>
    </g>
    <g>
      <path d="M62.01,99.61c-0.23,0-0.45,0.03-0.66,0.09c1.24,0.3,2.17,1.41,2.17,2.75s-0.93,2.45-2.17,2.75 c0.21,0.05,0.43,0.09,0.66,0.09c1.57,0,2.83-1.27,2.83-2.83S63.58,99.61,62.01,99.61z" fill="#E0E0E0"/>
      <path d="M72.24,100.52c-0.23,0-0.45,0.04-0.66,0.09c1.15,0.3,2,1.33,2,2.57c0,1.24-0.85,2.27-2,2.57 c0.21,0.06,0.43,0.09,0.66,0.09c1.47,0,2.66-1.19,2.66-2.66C74.9,101.71,73.71,100.52,72.24,100.52z" fill="#E0E0E0"/>
      <path d="M82.46,101.43c-0.23,0-0.45,0.04-0.66,0.1c1.05,0.29,1.82,1.24,1.82,2.39 c0,1.14-0.77,2.09-1.82,2.39c0.21,0.06,0.43,0.1,0.66,0.1c1.37,0,2.49-1.11,2.49-2.49S83.83,101.43,82.46,101.43z" fill="#E0E0E0"/>
    </g>
    <path d="M116.7,114.72c-77.41-1.38-104.5-4.6-104.5-4.6c-0.53-1.63-1-3.53-1-3.53 c35.62,3.26,106.35,6.6,106.35,6.6L116.7,114.72z" fill="#BF360C"/>
    <line fill="none" stroke="#82AEC0" stroke-width="3" stroke-linecap="round" stroke-miterlimit="10" x1="71.09" x2="107.86" y1="91.79" y2="91.79"/>
  </g>
</svg>

<svg viewBox="0 0 128 128" xmlns="http://www.w3.org/2000/svg">
  <defs/>
  <path d="M76.766,5.635 L69.296,112.315 Q69.192,113.811 67.695,113.706 Q66.199,113.602 66.304,112.105 L73.774,5.425 Q73.826,4.677 74.226,4.329 Q74.627,3.981 75.375,4.034 Q76.871,4.138 76.766,5.635 Z" fill="#82AEC0"/>
  <path d="M11.82,103.13 C11.82,103.13 18.36,76.24 33.61,49.78 C47.34,25.96 74.13,4 74.13,4 C74.13,4 66.04,38.67 64.53,59.27 C62.61,85.45 67.06,97.78 67.06,97.78 C67.06,97.78 56.01,92.8 43.96,94 C26.38,95.75 11.82,103.13 11.82,103.13 Z" fill="#FF7043"/>
  <path d="M76.27,92.02 L108.87,90.28 L76.84,5.26 Z" fill="#F4511E"/>
  <path d="M64.05,71.92 C50.79,69.39 34.38,69.94 21.76,73.96 C19.82,78.54 17.32,85.44 17.32,85.44 C31.16,79.1 49.4,78.36 64.42,82.21 C64.2,79.22 64.05,75.8 64.05,71.92 Z" fill="#FFAB91"/>
  <path d="M34.38,48.48 C34.12,48.91 33.86,49.35 33.6,49.78 C31.57,53.3 29.74,56.84 28.08,60.33 C38.69,56.58 53.17,56.95 64.56,58.73 C64.81,55.54 65.21,52.04 65.71,48.38 C56.19,47 43.69,46.5 34.38,48.48 Z" fill="#FFAB91"/>
  <path d="M52.49,24.8 C49.44,28.14 46.33,31.75 43.36,35.54 C50.4,34.29 60.36,34.97 67.66,35.95 C68.23,32.65 68.83,29.39 69.43,26.29 C64.4,25.54 57.44,24.6 52.49,24.8 Z" fill="#FFAB91"/>
  <path d="M76.34,81.48 L104.75,79.34 L101.62,71.05 L76.4,72.96 Z" fill="#BF360C"/>
  <path d="M93.49,49.47 L76.54,50.74 L76.49,59.27 L96.65,57.86 Z" fill="#BF360C"/>
  <path d="M85.35,27.87 L76.68,28.52 L76.63,37.11 L88.5,36.21 Z" fill="#BF360C"/>
  <path d="M84.25,99.04 L52.59,96.4 C52.59,96.4 47.15,96.62 42.42,96.62 C37.69,96.62 35.28,106.65 35.28,106.65 L89.96,109.85 L88.06,102.27 C87.6,100.49 86.08,99.19 84.25,99.04 Z" fill="#E0E0E0"/>
  <path d="M46.21,107.29 C46.21,107.29 49.34,96.4 52.59,96.4 C55.26,96.4 77.08,98.36 84.69,99.05 C86.26,99.19 87.56,100.31 87.94,101.84 L89.94,109.85 L46.21,107.29 Z" fill="#82AEC0"/>
  <path d="M24.31,124 C14.64,124 10.96,106.1 10.53,103.41 C10.46,103 10.8,102.64 11.22,102.69 C46.87,107 109.21,109.81 118.35,110.21 C118.86,110.23 119.15,110.79 118.89,111.22 L112.05,122.29 C111.39,123.35 110.23,124 108.98,124 L43.59,124 C43.59,124 32.97,124 24.31,124 Z" fill="#B9E4EA"/>
  <path d="M64.84,102.44 A2.83 2.83 0 1 1 59.18,102.44 A2.83 2.83 0 1 1 64.84,102.44 Z" fill="#37474F"/>
  <path d="M74.9,103.18 A2.66 2.66 0 1 1 69.58,103.18 A2.66 2.66 0 1 1 74.9,103.18 Z" fill="#37474F"/>
  <path d="M84.95,103.92 A2.49 2.49 0 1 1 79.97,103.92 A2.49 2.49 0 1 1 84.95,103.92 Z" fill="#37474F"/>
  <path d="M62.01,99.61 C61.78,99.61 61.56,99.64 61.35,99.7 C62.59,100 63.52,101.11 63.52,102.45 C63.52,103.79 62.59,104.9 61.35,105.2 C61.56,105.25 61.78,105.29 62.01,105.29 C63.58,105.29 64.84,104.02 64.84,102.46 C64.84,100.9 63.58,99.61 62.01,99.61 Z" fill="#E0E0E0"/>
  <path d="M72.24,100.52 C72.01,100.52 71.79,100.56 71.58,100.61 C72.73,100.91 73.58,101.94 73.58,103.18 C73.58,104.42 72.73,105.45 71.58,105.75 C71.79,105.81 72.01,105.84 72.24,105.84 C73.71,105.84 74.9,104.65 74.9,103.18 C74.9,101.71 73.71,100.52 72.24,100.52 Z" fill="#E0E0E0"/>
  <path d="M82.46,101.43 C82.23,101.43 82.01,101.47 81.8,101.53 C82.85,101.82 83.62,102.77 83.62,103.92 C83.62,105.06 82.85,106.01 81.8,106.31 C82.01,106.37 82.23,106.41 82.46,106.41 C83.83,106.41 84.95,105.3 84.95,103.92 C84.95,102.54 83.83,101.43 82.46,101.43 Z" fill="#E0E0E0"/>
  <path d="M116.7,114.72 C39.29,113.34 12.2,110.12 12.2,110.12 C11.67,108.49 11.2,106.59 11.2,106.59 C46.82,109.85 117.55,113.19 117.55,113.19 L116.7,114.72 Z" fill="#BF360C"/>
  <path d="M71.09,90.29 L107.86,90.29 Q109.36,90.29 109.36,91.79 Q109.36,93.29 107.86,93.29 L71.09,93.29 Q69.59,93.29 69.59,91.79 Q69.59,90.29 71.09,90.29 Z" fill="#82AEC0"/>
</svg>
